X:54
T:Lango Lee THO4.054, New
N:aka Banks of the Dee
M:6/8
L:1/8
Z:vmp. Peter Dunk 2010/11.from a transcription by Fynn Titford-Mock 2007
B:Thompson's Compleat Collection of 200 Favourite Country Dances Volume IV.
Q:3/8=100
K:A
E|E>FG ABc|dfe dcB|cAF EAB|cdB A2::d|c2 d e3|{g}f2 d ecA|
c>de f>ga|A>BA GFE|Dfd [cC]ec|BAB cAF|AGF Eed|cdB A2:|
